X: 118201
Q: "Strathspey."
M: C
L: 1/16
K: A
(ucB3) |\
ve3vBuc3uG vA3vEuF3uC | D3FE3G A4-A2 |]\
(ucd) |\
vec3 vc3ua ve3ue fedc | ec3 c3a (gf3) (fa3) |\
ec3 c3a e3e fedc |
vd3vB (cA3) F4- F2cd |\
ec3 c3a e3e fedc | ec3 c3a (gf3) (f3g) |\
(3a2g2f2 (3e2f2g2 (3a2e2d2 (3c2B2A2 | vd3vB (cA3) F4-F2 |]


